public/css/fa/svgs/solid/dove.svg

<svg xmlns="http://www.w3.org/2000/svg" viewBox="0 0 512 512"><!--! Font Awesome Free 6.0.0 by @fontawesome - https://fontawesome.com License - https://fontawesome.com/license/free (Icons: CC BY 4.0, Fonts: SIL OFL 1.1, Code: MIT License) Copyright 2022 Fonticons, Inc. --><path d="M288 167.2V139.1c-28.25-36.38-47.13-79.29-54.13-125.2C231.7 .4054 214.8-5.02 206.1 5.481C184.1 30.36 168.4 59.7 157.2 92.07C191.4 130.3 237.2 156.7 288 167.2zM400 63.97c-44.25 0-79.1 35.82-79.1 80.08l.0014 59.44c-104.4-6.251-193-70.46-233-161.7C81.48 29.25 63.76 28.58 58.01 40.83C41.38 75.96 32.01 115.2 32.01 156.6c0 70.76 34.11 136.9 85.11 185.9c13.12 12.75 26.13 23.27 38.88 32.77L12.12 411.2c-10.75 2.75-15.5 15.09-9.5 24.47c17.38 26.88 60.42 72.54 153.2 76.29c8 .25 15.99-2.633 22.12-7.883l65.23-56.12l76.84 .0561c88.38 0 160-71.49 160-159.9l.0013-160.2l31.1-63.99L400 63.97zM400 160.1c-8.75 0-16.01-7.259-16.01-16.01c0-8.876 7.261-16.05 16.01-16.05s15.99 7.136 15.99 16.01C416 152.8 408.8 160.1 400 160.1z"/></svg>

<svg xmlns="http://www.w3.org/2000/svg" viewBox="0 0 512 512"><!-- Font Awesome Pro 5.15.1 by @fontawesome - https://fontawesome.com License - https://fontawesome.com/license (Commercial License) --><path d="M288 167.2v-28.1c-28.2-36.3-47.1-79.3-54.1-125.2-2.1-13.5-19-18.8-27.8-8.3-21.1 24.9-37.7 54.1-48.9 86.5 34.2 38.3 80 64.6 130.8 75.1zM400 64c-44.2 0-80 35.9-80 80.1v59.4C215.6 197.3 127 133 87 41.8c-5.5-12.5-23.2-13.2-29-.9C41.4 76 32 115.2 32 156.6c0 70.8 34.1 136.9 85.1 185.9 13.2 12.7 26.1 23.2 38.9 32.8l-143.9 36C1.4 414-3.4 426.4 2.6 435.7 20 462.6 63 508.2 155.8 512c8 .3 16-2.6 22.1-7.9l65.2-56.1H320c88.4 0 160-71.5 160-159.9V128l32-64H400zm0 96.1c-8.8 0-16-7.2-16-16s7.2-16 16-16 16 7.2 16 16-7.2 16-16 16z"/></svg>
